X:341
T:The Humors of Westport
C:J.O'Neill.
M:C|
L:1/8
K:F
"F"f2 ({g}fe) fcAc|f2 ({g}fe) fagf|fage fcAc|"Gm"(BA)GA "C"(Bc)de|\
"F"f2 ({g}fe) fcAc|f2 ({g}fe) fagb|afge fcAc|"Gm"(BA)GA "C"(Bd)cB||
"F"AFcF dFcF|AFcF "Bb"BdcB|"F"AFcF dFcF|"Gm"(BA)GA "C"(Bd)cB|\
"F"AFcF "Bb"dFdF|"F"AFcF "Bb"BdcB|"F"Acfa gefc|"Gm"(BA)GA "C"(Bc)de|]
